EVChargePoints/Assets.xcassets/Graphics/Network Graphics Inverted/default-network-i.imageset/default-network-i.svg

<?xml version="1.0" encoding="iso-8859-1"?>
<!-- Generator: Adobe Illustrator 27.8.1, SVG Export Plug-In . SVG Version: 6.00 Build 0)  -->
<svg version="1.1" id="Layer_1" xmlns="http://www.w3.org/2000/svg" xmlns:xlink="http://www.w3.org/1999/xlink" x="0px" y="0px"
	 viewBox="0 0 128 128" style="enable-background:new 0 0 128 128;" xml:space="preserve">
<path style="fill:#FFFFFF;" d="M63.928,0C28.942,0,0,28.99,0,64.025S28.99,128,63.975,128S128,99.01,128,64.025S98.96,0,63.928,0z
	 M120.533,64.025c0,5.675-0.87,11.168-2.47,16.36c-3.882,2.018-7.857,3.77-11.91,5.235c-6.45-5.695-11.77-12.507-15.692-20.125
	c1.73-1.418,2.933-3.463,3.28-5.792c8.762-2.375,17.055-6.123,24.59-11.118c1.423,4.92,2.202,10.095,2.202,15.438V64.025z
	 M114.228,89.71c-0.265,0.51-0.53,1.018-0.81,1.52c-0.36-0.24-0.705-0.5-1.058-0.747C112.985,90.23,113.607,89.975,114.228,89.71z
	 M75.06,91.482c-1.253-3.495-4.49-5.997-8.353-6.205c-1.662-7.247-2.533-14.728-2.533-22.333c0-0.182,0.01-0.365,0.01-0.55
	c2.485,0.197,4.985,0.315,7.507,0.303c1.595-0.007,3.18-0.077,4.76-0.173c1.44,2.792,4.265,4.755,7.56,5
	c3.78,7.577,8.802,14.478,14.86,20.415c-7.802,2.158-15.8,3.323-23.81,3.54L75.06,91.482z M35.627,84.56
	c-0.257-7.68,0.395-15.255,1.868-22.607c2.505-0.357,4.69-1.708,6.158-3.647c4.478,1.458,9.092,2.57,13.812,3.305
	c-0.005,0.445-0.025,0.888-0.025,1.333c0,8.318,0.967,16.483,2.818,24.377c-1.05,0.842-1.908,1.91-2.513,3.13
	c-7.535-1.107-14.96-3.077-22.12-5.893L35.627,84.56z M68.397,7.665c1.42,0.115,2.83,0.267,4.22,0.488
	c-8.46,14.127-13.605,30.053-14.865,46.713c-4.162-0.688-8.235-1.693-12.188-3c-0.18-2.555-1.393-4.845-3.228-6.445
	C47.93,31.103,56.823,18.155,68.397,7.665z M79.757,9.78c-2.665,8.03-3.918,16.525-3.745,25.255
	c0.115,5.728,0.872,11.333,2.205,16.737c-1.137,1.105-1.988,2.495-2.435,4.052c-1.36,0.077-2.723,0.132-4.095,0.143
	c-2.44,0.02-4.857-0.09-7.255-0.283c1.185-16.583,6.433-32.268,15.135-45.958c0.062,0.017,0.128,0.035,0.19,0.055L79.757,9.78z
	 M115.973,41.98c-7.213,5.03-15.235,8.79-23.747,11.14c-1.655-2.403-4.415-3.983-7.515-3.983c-0.067,0-0.132,0.007-0.2,0.01
	c-1.048-4.595-1.66-9.347-1.765-14.21c-0.21-7.853,0.927-15.59,3.308-22.882C99.415,17.825,110.21,28.62,115.973,41.98
	L115.973,41.98z M58.732,7.722C48.84,17.945,41.15,29.983,36.06,43.097c-2.123,0.022-4.075,0.745-5.65,1.938
	c-5.173-3.013-10-6.597-14.385-10.71C25.172,19.673,40.807,9.403,58.732,7.72V7.722z M12.648,40.585
	c4.365,3.882,9.113,7.298,14.155,10.217c-0.108,0.56-0.167,1.135-0.167,1.722c0,3.342,1.73,6.283,4.34,7.985
	c-1.382,6.885-2.09,13.953-2.07,21.118c-7.528-3.613-14.693-8.19-21.285-13.747c-0.088-1.277-0.15-2.56-0.15-3.857
	c0-8.335,1.867-16.275,5.178-23.44L12.648,40.585z M9.175,77.647c6.307,4.605,13.03,8.442,20.03,11.512
	c0.042,0.58,0.08,1.162,0.132,1.743c0.19,6.658,1.173,13.257,2.912,19.708c-11.257-7.74-19.647-19.425-23.073-32.963H9.175z
	 M40.882,115.49c-2.778-7.575-4.38-15.46-4.792-23.592c6.825,2.448,13.858,4.192,20.985,5.22c1.02,3.905,4.438,6.772,8.633,6.98
	c2.255,5.385,4.938,10.588,8.05,15.555c-3.183,0.567-6.448,0.882-9.78,0.882c-8.2,0-16.02-1.817-23.095-5.043L40.882,115.49z
	 M80.688,117.967c-3.325-5.062-6.183-10.4-8.542-15.952c1.235-1.003,2.202-2.312,2.802-3.817c10.085-0.232,20.15-1.893,29.875-4.99
	c1.61,1.28,3.277,2.5,4.997,3.652c-7.128,9.855-17.323,17.393-29.132,21.11V117.967z"/>
</svg>

<?xml version="1.0" encoding="UTF-8"?>
<svg id="Layer_1" data-name="Layer 1" xmlns="http://www.w3.org/2000/svg" viewBox="0 0 128 128">
  <defs>
    <style>
      .cls-1 {
        fill: #fff;
        stroke-width: 0px;
      }
    </style>
  </defs>
  <path class="cls-1" d="m63.93,0C28.94,0,0,28.99,0,64.03s28.99,63.97,63.97,63.97,64.03-28.99,64.03-63.97S98.96,0,63.93,0Zm56.6,64.03c0,5.68-.87,11.17-2.47,16.36-3.88,2.02-7.86,3.77-11.91,5.24-6.45-5.69-11.77-12.51-15.69-20.12,1.73-1.42,2.93-3.46,3.28-5.79,8.76-2.38,17.06-6.12,24.59-11.12,1.42,4.92,2.2,10.1,2.2,15.44h0Zm-6.31,25.68c-.26.51-.53,1.02-.81,1.52-.36-.24-.71-.5-1.06-.75.62-.25,1.25-.51,1.87-.77Zm-39.17,1.77c-1.25-3.5-4.49-6-8.35-6.21-1.66-7.25-2.53-14.73-2.53-22.33,0-.18.01-.37.01-.55,2.49.2,4.99.31,7.51.3,1.6,0,3.18-.08,4.76-.17,1.44,2.79,4.26,4.76,7.56,5,3.78,7.58,8.8,14.48,14.86,20.42-7.8,2.16-15.8,3.32-23.81,3.54h0Zm-39.43-6.92c-.26-7.68.4-15.25,1.87-22.61,2.51-.36,4.69-1.71,6.16-3.65,4.48,1.46,9.09,2.57,13.81,3.31,0,.44-.03.89-.03,1.33,0,8.32.97,16.48,2.82,24.38-1.05.84-1.91,1.91-2.51,3.13-7.53-1.11-14.96-3.08-22.12-5.89h0ZM68.4,7.66c1.42.11,2.83.27,4.22.49-8.46,14.13-13.6,30.05-14.86,46.71-4.16-.69-8.24-1.69-12.19-3-.18-2.56-1.39-4.85-3.23-6.44,5.59-14.32,14.49-27.26,26.06-37.76Zm11.36,2.11c-2.67,8.03-3.92,16.53-3.75,25.26.11,5.73.87,11.33,2.21,16.74-1.14,1.1-1.99,2.49-2.43,4.05-1.36.08-2.72.13-4.1.14-2.44.02-4.86-.09-7.25-.28,1.18-16.58,6.43-32.27,15.14-45.96.06.02.13.03.19.06h0Zm36.22,32.2c-7.21,5.03-15.24,8.79-23.75,11.14-1.65-2.4-4.42-3.98-7.51-3.98-.07,0-.13,0-.2,0-1.05-4.6-1.66-9.35-1.76-14.21-.21-7.85.93-15.59,3.31-22.88,13.36,5.77,24.16,16.57,29.92,29.92h0ZM58.73,7.72c-9.89,10.22-17.58,22.26-22.67,35.38-2.12.02-4.08.74-5.65,1.94-5.17-3.01-10-6.6-14.39-10.71,9.15-14.65,24.78-24.92,42.71-26.6h0ZM12.65,40.58c4.37,3.88,9.11,7.3,14.15,10.22-.11.56-.17,1.13-.17,1.72,0,3.34,1.73,6.28,4.34,7.99-1.38,6.88-2.09,13.95-2.07,21.12-7.53-3.61-14.69-8.19-21.28-13.75-.09-1.28-.15-2.56-.15-3.86,0-8.33,1.87-16.28,5.18-23.44h0Zm-3.47,37.06c6.31,4.61,13.03,8.44,20.03,11.51.04.58.08,1.16.13,1.74.19,6.66,1.17,13.26,2.91,19.71-11.26-7.74-19.65-19.43-23.07-32.96h0Zm31.71,37.84c-2.78-7.57-4.38-15.46-4.79-23.59,6.83,2.45,13.86,4.19,20.99,5.22,1.02,3.9,4.44,6.77,8.63,6.98,2.25,5.39,4.94,10.59,8.05,15.56-3.18.57-6.45.88-9.78.88-8.2,0-16.02-1.82-23.1-5.04h0Zm39.81,2.48c-3.32-5.06-6.18-10.4-8.54-15.95,1.24-1,2.2-2.31,2.8-3.82,10.08-.23,20.15-1.89,29.88-4.99,1.61,1.28,3.28,2.5,5,3.65-7.13,9.85-17.32,17.39-29.13,21.11h0Z"/>
</svg>
